flaticon/gastronomy/ladle.svg

<svg xmlns="http://www.w3.org/2000/svg" width="32" height="32" viewBox="0 0 24 24">
    <path d="M8.222656 20.582031C7.488281 21.316406 6.359375 21.675781 5.191406 21.539062 4.957031 21.511719 4.742188 21.683594 4.71875 21.917969 4.691406 22.152344 4.859375 22.363281 5.09375 22.390625 5.292969 22.414062 5.492188 22.425781 5.6875 22.425781 6.90625 22.425781 8.027344 21.988281 8.828125 21.183594 8.996094 21.015625 8.996094 20.746094 8.828125 20.578125 8.660156 20.410156 8.390625 20.414062 8.222656 20.582031zM21.324219 1.5C21.15625 1.335938 20.886719 1.335938 20.71875 1.5L19.71875 2.5C19.554688 2.667969 19.554688 2.9375 19.71875 3.105469 19.804688 3.191406 19.914062 3.230469 20.023438 3.230469 20.132812 3.230469 20.242188 3.191406 20.328125 3.105469L21.324219 2.109375C21.492188 1.941406 21.492188 1.667969 21.324219 1.5zM19.25 4.183594C19.417969 4.015625 19.417969 3.746094 19.25 3.578125 19.082031 3.410156 18.8125 3.410156 18.644531 3.578125L15.808594 6.410156C15.640625 6.578125 15.640625 6.851562 15.808594 7.019531 15.894531 7.101562 16.003906 7.144531 16.113281 7.144531 16.222656 7.144531 16.332031 7.101562 16.414062 7.019531zM17.269531 7.375L16.253906 8.390625C16.089844 8.558594 16.089844 8.828125 16.253906 8.996094 16.339844 9.078125 16.449219 9.121094 16.558594 9.121094 16.667969 9.121094 16.777344 9.078125 16.863281 8.996094L17.875 7.984375C18.042969 7.816406 18.042969 7.542969 17.875 7.375 17.707031 7.210938 17.4375 7.207031 17.269531 7.375zM20.546875 4.097656L18.480469 6.164062C18.3125 6.332031 18.3125 6.601562 18.480469 6.769531 18.566406 6.851562 18.675781 6.894531 18.785156 6.894531 18.894531 6.894531 19.003906 6.851562 19.085938 6.769531L21.152344 4.703125C21.320312 4.535156 21.320312 4.265625 21.152344 4.097656 20.984375 3.929688 20.714844 3.929688 20.546875 4.097656zM22.019531 2.625L21.511719 3.132812C21.34375 3.300781 21.34375 3.570312 21.511719 3.738281 21.59375 3.824219 21.703125 3.863281 21.8125 3.863281 21.925781 3.863281 22.035156 3.824219 22.117188 3.738281L22.628906 3.230469C22.792969 3.0625 22.792969 2.792969 22.628906 2.625 22.460938 2.457031 22.1875 2.457031 22.019531 2.625zM22.019531 2.625"/>
    <path d="M 23.996094 2.878906 C 23.992188 2.785156 23.933594 1.917969 23.035156 1.019531 C 22.9375 0.921875 22.082031 0.0429688 21.160156 0.0429688 C 21.152344 0.0429688 21.144531 0.0429688 21.136719 0.0429688 L 21.050781 0.046875 L 20.972656 0.078125 C 20.785156 0.160156 16.351562 2.117188 13.023438 8.007812 L 12.964844 8.113281 L 12.96875 8.234375 C 12.96875 8.324219 13.027344 9.066406 13.742188 9.886719 L 10.175781 13.453125 C 10.003906 13.207031 9.84375 13.007812 9.710938 12.875 C 9.53125 12.695312 9.25 12.539062 8.824219 12.527344 C 8.394531 12.515625 7.816406 12.644531 7.039062 13.042969 C 6.902344 13.109375 6.761719 13.1875 6.621094 13.269531 C 5.636719 13.839844 4.542969 14.707031 3.5 15.753906 C 2.289062 16.964844 1.273438 18.269531 0.644531 19.433594 C -0.0859375 20.773438 -0.195312 21.753906 0.316406 22.265625 C 0.78125 22.730469 2.289062 23.554688 4.050781 23.847656 C 4.449219 23.914062 4.886719 23.957031 5.355469 23.957031 C 6.769531 23.957031 8.425781 23.550781 9.863281 22.117188 C 12.480469 19.5 11.640625 16.140625 10.628906 14.214844 L 14.363281 10.480469 C 14.71875 10.753906 15.246094 11.070312 15.800781 11.070312 C 15.8125 11.070312 15.820312 11.070312 15.828125 11.070312 L 15.910156 11.070312 L 15.988281 11.035156 C 16.175781 10.957031 20.609375 9 23.941406 3.105469 L 24 3 Z M 1.394531 19.84375 C 1.980469 18.765625 2.96875 17.496094 4.105469 16.359375 C 5.238281 15.226562 6.417969 14.320312 7.425781 13.804688 C 8.019531 13.503906 8.476562 13.382812 8.769531 13.382812 C 8.933594 13.382812 9.042969 13.417969 9.105469 13.480469 C 9.277344 13.652344 9.246094 14.242188 8.78125 15.160156 C 8.265625 16.167969 7.359375 17.347656 6.226562 18.480469 C 5.089844 19.617188 3.820312 20.605469 2.742188 21.191406 C 1.652344 21.78125 1.058594 21.796875 0.921875 21.660156 C 0.789062 21.527344 0.804688 20.933594 1.394531 19.84375 Z M 9.257812 21.511719 C 7.605469 23.164062 5.589844 23.234375 4.191406 23 C 3.421875 22.875 2.722656 22.636719 2.160156 22.390625 C 2.464844 22.28125 2.792969 22.136719 3.152344 21.941406 C 4.3125 21.3125 5.621094 20.296875 6.832031 19.085938 C 8.027344 17.890625 8.992188 16.632812 9.542969 15.546875 C 9.699219 15.238281 9.8125 14.960938 9.894531 14.714844 C 10.71875 16.351562 11.523438 19.242188 9.257812 21.511719 Z M 15.734375 10.210938 C 15.277344 10.164062 14.730469 9.691406 14.546875 9.503906 L 14.445312 9.398438 C 14.371094 9.316406 14.308594 9.234375 14.25 9.15625 C 14.277344 9.136719 14.308594 9.125 14.335938 9.097656 L 15.453125 7.984375 C 15.617188 7.816406 15.617188 7.542969 15.453125 7.375 C 15.285156 7.207031 15.011719 7.207031 14.84375 7.375 L 13.855469 8.367188 C 13.847656 8.347656 13.84375 8.324219 13.839844 8.304688 C 16.765625 3.203125 20.621094 1.199219 21.230469 0.902344 C 21.683594 0.949219 22.230469 1.421875 22.414062 1.613281 L 22.515625 1.71875 C 22.953125 2.191406 23.082031 2.617188 23.125 2.808594 C 20.195312 7.914062 16.34375 9.917969 15.734375 10.210938 Z M 15.734375 10.210938"/>
</svg>

<svg xmlns="http://www.w3.org/2000/svg" width="32" height="32" viewBox="0 0 24 24">
    <path d="M8.223 20.582c-.735.734-1.864 1.094-3.032.957a.427.427 0 0 0-.472.379.426.426 0 0 0 .375.473c.199.023.398.035.593.035 1.22 0 2.34-.438 3.141-1.242a.427.427 0 1 0-.605-.602zm0 0M21.324 1.5a.434.434 0 0 0-.605 0l-1 1a.434.434 0 0 0 0 .605.425.425 0 0 0 .304.125c.11 0 .22-.039.305-.125l.996-.996a.431.431 0 0 0 0-.609zm0 0M19.25 4.184a.427.427 0 0 0 0-.606.427.427 0 0 0-.605 0L15.809 6.41a.431.431 0 0 0 .304.735c.11 0 .219-.043.301-.125zm0 0M17.27 7.375l-1.016 1.016a.434.434 0 0 0 0 .605.442.442 0 0 0 .305.125c.109 0 .218-.043.304-.125l1.012-1.012a.43.43 0 0 0-.605-.61zm0 0M20.547 4.098L18.48 6.164a.427.427 0 0 0 .305.73c.11 0 .219-.042.3-.124l2.067-2.067a.427.427 0 0 0 0-.605.427.427 0 0 0-.605 0zm0 0M22.02 2.625l-.508.508a.427.427 0 0 0 .3.73c.114 0 .223-.039.305-.125l.512-.508a.434.434 0 0 0 0-.605.431.431 0 0 0-.61 0zm0 0"/>
    <path d="M23.996 2.879c-.004-.094-.062-.961-.96-1.86-.099-.097-.954-.976-1.876-.976h-.023l-.086.004-.078.031c-.188.082-4.621 2.04-7.95 7.93l-.058.105.004.121c0 .09.058.832.773 1.653l-3.566 3.566a4.474 4.474 0 0 0-.465-.578c-.18-.18-.461-.336-.887-.348-.43-.011-1.008.118-1.785.516a6.345 6.345 0 0 0-.418.227c-.984.57-2.078 1.437-3.121 2.484-1.21 1.21-2.227 2.516-2.855 3.68-.73 1.34-.84 2.32-.329 2.832.465.464 1.973 1.289 3.735 1.582.398.066.836.109 1.304.109 1.415 0 3.07-.406 4.508-1.84 2.617-2.617 1.778-5.976.766-7.902l3.734-3.735c.356.274.883.59 1.438.59h.109l.078-.035c.188-.078 4.621-2.035 7.953-7.93L24 3zM1.395 19.844c.585-1.078 1.574-2.348 2.71-3.485 1.133-1.132 2.313-2.039 3.32-2.554.595-.301 1.052-.422 1.345-.422.164 0 .273.035.335.097.172.172.141.762-.324 1.68-.515 1.008-1.422 2.188-2.554 3.32-1.137 1.137-2.407 2.125-3.485 2.711-1.09.59-1.683.606-1.82.47-.133-.134-.117-.727.473-1.817zm7.863 1.668C7.605 23.164 5.59 23.234 4.19 23a8.548 8.548 0 0 1-2.03-.61 7.08 7.08 0 0 0 .991-.449c1.16-.628 2.47-1.644 3.68-2.855 1.195-1.195 2.16-2.453 2.711-3.54.156-.308.27-.585.352-.831.824 1.637 1.628 4.527-.637 6.797zm6.476-11.301c-.457-.047-1.004-.52-1.187-.707l-.102-.106a3.322 3.322 0 0 1-.195-.242c.027-.02.059-.031.086-.058l1.117-1.114a.439.439 0 0 0 0-.609.431.431 0 0 0-.61 0l-.988.992c-.007-.02-.011-.043-.015-.062 2.926-5.102 6.781-7.106 7.39-7.403.454.047 1 .52 1.184.711l.102.106c.437.472.566.898.609 1.09-2.93 5.105-6.781 7.109-7.39 7.402zm0 0"/>
</svg>
